resources/haticons/SVG/file-text.svg

<!-- Generated by IcoMoon.io -->
<svg version="1.1" xmlns="http://www.w3.org/2000/svg" width="24" height="24" viewBox="0 0 24 24">
<title>file-text</title>
<path d="M20.25 0h-18c-1.237 0-2.25 1.013-2.25 2.25v19.5c0 1.237 1.013 2.25 2.25 2.25h18c1.237 0 2.25-1.013 2.25-2.25v-19.5c0-1.237-1.013-2.25-2.25-2.25zM19.5 21h-16.5v-18h16.5v18zM6 10.5h10.5v1.5h-10.5zM6 13.5h10.5v1.5h-10.5zM6 16.5h10.5v1.5h-10.5zM6 7.5h10.5v1.5h-10.5z"></path>
</svg>

<svg xmlns="http://www.w3.org/2000/svg" width="24" height="24"><path d="M20.25 0h-18A2.257 2.257 0 0 0 0 2.25v19.5A2.257 2.257 0 0 0 2.25 24h18a2.257 2.257 0 0 0 2.25-2.25V2.25A2.257 2.257 0 0 0 20.25 0zm-.75 21H3V3h16.5v18zM6 10.5h10.5V12H6zm0 3h10.5V15H6zm0 3h10.5V18H6zm0-9h10.5V9H6z"/></svg>
